public/assets/imgs/projetos/icons/idea-icon.svg

<svg fill="none" height="45" viewBox="0 0 30 45" width="30" xmlns="http://www.w3.org/2000/svg"><path clip-rule="evenodd" d="m20.3572 27.9539c0-.2917.1745-.5539.4383-.6786 4.5963-2.1739 7.7759-6.8533 7.7759-12.2753 0-3.8192-1.5776-7.27-4.1167-9.73617-.2793-.2713-.3145-.71376-.0637-1.01161.2576-.30583.7171-.34218 1.0053-.06503 2.8378 2.72913 4.6037 6.56471 4.6037 10.81281 0 5.8423-3.34 10.9044-8.2147 13.3812v9.6545h-.002c-.0947 3.7638-3.1755 6.9643-6.962 6.9643-3.768 0-6.66234-3.1692-6.78399-6.9089h-.0016v-.0554-.1786-5-4.5684c-1.01412-.5325-1.95979-1.1778-2.82038-1.9191-.30475-.2625-.30966-.7268-.02525-1.0112.27373-.2737.71433-.2784 1.0089-.0272.85952.7329 1.81164 1.3604 2.83636 1.8626.25881.1269.42901.3866.42901.6748 0 .15-.00257.2831-.00753.401h.00747v3.8733h3.27511l-1.5833-8.0749c-.3587-.193-.7539-.4925-1.0638-.9104-.2052-.2767-.36898-.6011-.45997-.9686-.5533.2627-1.18645.448-1.82555.422-.6195-.0252-1.23972-.2508-1.75178-.7757-.49854-.5111-.84478-1.2543-1.04011-2.2309-.06765-.3383-.09035-.657-.06883-.9546-.55358-.3186-1.11625-.8505-1.5537-1.4778-.60549-.8683-1.05871-2.042-.88593-3.3378.24836-1.8628 1.42562-2.8674 2.42999-3.3311-.04713-.66206.01062-1.47067.31537-2.19989.20774-.49712.5389-.97614 1.04642-1.32839.51058-.35436 1.15059-.54625 1.9162-.54625.46856 0 .90018.07094 1.28806.20484.11867-.28755.28358-.58265.50553-.85598.5195-.63975 1.3344-1.13457 2.4921-1.13457 1.0905 0 1.8432.45217 2.3215 1.00236.4782-.55019 1.231-1.00236 2.3214-1.00236 1.1578 0 1.9727.49482 2.4922 1.13457.2219.27333.3868.56843.5055.85598.3879-.1339.8195-.20484 1.288-.20484.7656 0 1.4057.19189 1.9162.54625.5076.35225.8387.83127 1.0465 1.32839.3047.72922.3625 1.53783.3153 2.19989 1.0044.4637 2.1816 1.4683 2.43 3.3311.1728 1.2958-.2804 2.4695-.8859 3.3378-.4375.6273-1.0001 1.1592-1.5537 1.4778.0215.2976-.0012.6163-.0688.9546-.1954.9766-.5416 1.7198-1.0402 2.2309-.512.5249-1.1322.7505-1.7517.7757-.6391.026-1.2723-.1593-1.8256-.422-.091.3675-.2548.6919-.46.9686-.3099.4179-.7051.7174-1.0637.9104l-1.5833 8.0749h3.4529v-3.9286h.0052c-.0031-.0793-.0047-.1659-.0047-.2604zm-4.9092 4.189 1.5313-7.8097c-.9177-.0618-1.6546-.438-2.1577-.8338-.5032.3958-1.2401.772-2.1577.8338l1.5313 7.8097zm.9806 6.4285h3.5227c-.347 2.5434-2.5116 4.6429-5.13 4.6429-2.6185 0-4.6287-2.0995-4.95569-4.6429h3.52729c.3944 0 .7142-.3198.7142-.7143 0-.3944-.3198-.7142-.7142-.7142h-3.92861v-3.5715h10.71431v3.5715h-3.75c-.3945 0-.7143.3198-.7143.7142 0 .3945.3198.7143.7143.7143zm5.5495-35.2138c.3135.1883.7205.13206.9561-.14765.2739-.3253.2074-.81743-.156-1.03827-2.268-1.378091-4.9304-2.17168-7.7782-2.17168-8.28427 0-15 6.71573-15 15 0 3.3558 1.10201 6.4543 2.96389 8.9532.25256.339.74503.361 1.04393.0621.2602-.2602.27977-.6739.0614-.9701-1.65974-2.2512-2.64065-5.0337-2.64065-8.0452 0-7.49529 6.07614-13.57143 13.57143-13.57143 2.5518 0 4.9391.70427 6.9781 1.92903zm-12.76311 9.6182c2.43381-1.0647 3.08601-3.95347 1.52561-5.56107.0672-.23458.1873-.50385.3764-.7368.2659-.32752.6831-.6065 1.3831-.6065.6885 0 1.0686.28366 1.2946.57333.1208.15482.2031.32022.2542.46175.0416.11508.054.18959.0576.21165v.00327 7.76887c-.1045.3213-.5233.9811-1.6064.9811-.4816 0-.7992-.2357-1.0356-.6069-.2523-.3961-.3704-.8983-.394-1.2295-.028-.3935-.3697-.6898-.7632-.6618-.39345.028-.68975.3697-.66176.7632.03572.5022.20289 1.25.61396 1.8955.427.6705 1.1508 1.2681 2.2406 1.2681.6508 0 1.1813-.1494 1.6064-.3778v5.1103c-.3487.3388-1.1052.8088-2.1289.6469-.2205-.0918-.5254-.2863-.7378-.5727-.2087-.2814-.3449-.6676-.1927-1.2259.0816-.2991-.0391-.6167-.2987-.7861s-.5989-.1521-.83981.043c-.57371.4644-1.38574.8727-2.04379.8459-.29565-.012-.55711-.11-.78721-.3459-.24363-.2497-.50006-.7045-.66187-1.5135-.10769-.5384-.02095-.8513.09146-1.0395.11766-.1971.3235-.3578.62773-.4761.63813-.2482 1.47306-.2159 1.83316-.1439.38683.0774.76314-.1735.8405-.5603.07737-.3869-.1735-.7632-.56033-.8405-.53275-.1066-1.66211-.1636-2.63111.2132-.41327.1608-.83277.4147-1.15149.8097-.27941-.1995-.60858-.5119-.9015-.932-.46337-.6645-.75461-1.4848-.64167-2.3318.20012-1.501 1.27019-2.1565 1.9908-2.3654.10137-.0294.1893-.0476.2593-.0576.39052-.0558.66188-.4176.60609-.8082-.03657-.2559-.2046-.4607-.42602-.5557-.01481-.45465.04053-.95919.21725-1.38206.12559-.30053.30336-.53939.54286-.70562.23645-.1641.58156-.29128 1.10166-.29128.5974 0 1.0244.16483 1.316.38834.93809.71905.92589 2.62802-.88801 3.42152-.36142.1582-.52622.5793-.3681.9407s.57928.5262.94069.3681zm6.32161 9.2567v-5.1103c.4251.2284.9556.3778 1.6064.3778 1.0899 0 1.8136-.5976 2.2406-1.2681.4111-.6455.5783-1.3933.614-1.8955.028-.3935-.2683-.7352-.6618-.7632s-.7352.2683-.7632.6618c-.0235.3312-.1417.8334-.394 1.2295-.2364.3712-.554.6069-1.0356.6069-1.083 0-1.5018-.6598-1.6064-.9811v-7.76887-.00327c.0036-.02206.0161-.09657.0576-.21165.0512-.14153.1334-.30693.2542-.46175.226-.28967.6061-.57333 1.2946-.57333.7 0 1.1172.27898 1.3831.6065.1892.23295.3092.50222.3764.7368-1.5604 1.6076-.9081 4.49637 1.5256 5.56107.3615.1581.7826-.0067.9407-.3681.1582-.3614-.0066-.7825-.3681-.9407-1.8138-.7935-1.8261-2.70247-.888-3.42152.2916-.22351.7186-.38834 1.316-.38834.5201 0 .8652.12718 1.1017.29128.2395.16623.4173.40509.5429.70562.1767.42287.232.92741.2172 1.38206-.2214.095-.3894.2998-.426.5557-.0558.3906.2155.7524.6061.8082.07.01.1579.0282.2593.0576.7206.2089 1.7907.8644 1.9908 2.3654.1129.847-.1783 1.6673-.6417 2.3318-.2929.4201-.6221.7325-.9015.932-.3187-.395-.7382-.6489-1.1515-.8097-.969-.3768-2.0983-.3198-2.6311-.2132-.3868.0773-.6377.4536-.5603.8405.0773.3868.4536.6377.8405.5603.3601-.072 1.195-.1043 1.8331.1439.3043.1183.5101.279.6278.4761.1124.1882.1991.5011.0914 1.0395-.1618.809-.4182 1.2638-.6618 1.5135-.2301.2359-.4916.3339-.7873.3459-.658.0268-1.47-.3815-2.0437-.8459-.241-.1951-.5803-.2124-.8399-.043s-.3803.487-.2987.7861c.1523.5583.016.9445-.1926 1.2259-.2125.2864-.5174.4809-.7379.5727-1.0236.1619-1.7801-.3081-2.1289-.6469z" fill="#000" fill-rule="evenodd"/></svg>

<svg width="30" height="45" viewBox="0 0 30 45" fill="none" xmlns="http://www.w3.org/2000/svg">
<path fill-rule="evenodd" clip-rule="evenodd" d="M20.3572 27.9539C20.3572 27.6622 20.5317 27.4 20.7955 27.2753C25.3918 25.1014 28.5714 20.422 28.5714 15C28.5714 11.1808 26.9938 7.73 24.4547 5.26383C24.1754 4.99253 24.1402 4.55007 24.391 4.25222C24.6486 3.94639 25.1081 3.91004 25.3963 4.18719C28.2341 6.91632 30 10.7519 30 15C30 20.8423 26.66 25.9044 21.7853 28.3812V38.0357H21.7833C21.6886 41.7995 18.6078 45 14.8213 45C11.0533 45 8.15896 41.8308 8.03731 38.0911H8.03571V38.0357V37.8571V32.8571V28.2887C7.02159 27.7562 6.07592 27.1109 5.21533 26.3696C4.91058 26.1071 4.90567 25.6428 5.19008 25.3584C5.46381 25.0847 5.90441 25.08 6.19898 25.3312C7.0585 26.0641 8.01062 26.6916 9.03534 27.1938C9.29415 27.3207 9.46435 27.5804 9.46435 27.8686C9.46435 28.0186 9.46178 28.1517 9.45682 28.2696H9.46429V32.1429H12.7394L11.1561 24.068C10.7974 23.875 10.4022 23.5755 10.0923 23.1576C9.8871 22.8809 9.72332 22.5565 9.63233 22.189C9.07903 22.4517 8.44588 22.637 7.80678 22.611C7.18728 22.5858 6.56706 22.3602 6.055 21.8353C5.55646 21.3242 5.21022 20.581 5.01489 19.6044C4.94724 19.2661 4.92454 18.9474 4.94606 18.6498C4.39248 18.3312 3.82981 17.7993 3.39236 17.172C2.78687 16.3037 2.33365 15.13 2.50643 13.8342C2.75479 11.9714 3.93205 10.9668 4.93642 10.5031C4.88929 9.84104 4.94704 9.03243 5.25179 8.30321C5.45953 7.80609 5.79069 7.32707 6.29821 6.97482C6.80879 6.62046 7.4488 6.42857 8.21441 6.42857C8.68297 6.42857 9.11459 6.49951 9.50247 6.63341C9.62114 6.34586 9.78605 6.05076 10.008 5.77743C10.5275 5.13768 11.3424 4.64286 12.5001 4.64286C13.5906 4.64286 14.3433 5.09503 14.8216 5.64522C15.2998 5.09503 16.0526 4.64286 17.143 4.64286C18.3008 4.64286 19.1157 5.13768 19.6352 5.77743C19.8571 6.05076 20.022 6.34586 20.1407 6.63341C20.5286 6.49951 20.9602 6.42857 21.4287 6.42857C22.1943 6.42857 22.8344 6.62046 23.3449 6.97482C23.8525 7.32707 24.1836 7.80609 24.3914 8.30321C24.6961 9.03243 24.7539 9.84104 24.7067 10.5031C25.7111 10.9668 26.8883 11.9714 27.1367 13.8342C27.3095 15.13 26.8563 16.3037 26.2508 17.172C25.8133 17.7993 25.2507 18.3312 24.6971 18.6498C24.7186 18.9474 24.6959 19.2661 24.6283 19.6044C24.4329 20.581 24.0867 21.3242 23.5881 21.8353C23.0761 22.3602 22.4559 22.5858 21.8364 22.611C21.1973 22.637 20.5641 22.4517 20.0108 22.189C19.9198 22.5565 19.756 22.8809 19.5508 23.1576C19.2409 23.5755 18.8457 23.875 18.4871 24.068L16.9038 32.1429H20.3567V28.2143H20.3619C20.3588 28.135 20.3572 28.0484 20.3572 27.9539ZM15.448 32.1429L16.9793 24.3332C16.0616 24.2714 15.3247 23.8952 14.8216 23.4994C14.3184 23.8952 13.5815 24.2714 12.6639 24.3332L14.1952 32.1429H15.448ZM16.4286 38.5714H19.9513C19.6043 41.1148 17.4397 43.2143 14.8213 43.2143C12.2028 43.2143 10.1926 41.1148 9.86561 38.5714H13.3929C13.7873 38.5714 14.1071 38.2516 14.1071 37.8571C14.1071 37.4627 13.7873 37.1429 13.3929 37.1429H9.46429V33.5714H20.1786V37.1429H16.4286C16.0341 37.1429 15.7143 37.4627 15.7143 37.8571C15.7143 38.2516 16.0341 38.5714 16.4286 38.5714ZM21.9781 3.3576C22.2916 3.5459 22.6986 3.48966 22.9342 3.20995C23.2081 2.88465 23.1416 2.39252 22.7782 2.17168C20.5102 0.793589 17.8478 0 15 0C6.71573 0 0 6.71573 0 15C0 18.3558 1.10201 21.4543 2.96389 23.9532C3.21645 24.2922 3.70892 24.3142 4.00782 24.0153C4.26802 23.7551 4.28759 23.3414 4.06922 23.0452C2.40948 20.794 1.42857 18.0115 1.42857 15C1.42857 7.50471 7.50471 1.42857 15 1.42857C17.5518 1.42857 19.9391 2.13284 21.9781 3.3576ZM9.21499 12.9758C11.6488 11.9111 12.301 9.02233 10.7406 7.41473C10.8078 7.18015 10.9279 6.91088 11.117 6.67793C11.3829 6.35041 11.8001 6.07143 12.5001 6.07143C13.1886 6.07143 13.5687 6.35509 13.7947 6.64476C13.9155 6.79958 13.9978 6.96498 14.0489 7.10651C14.0905 7.22159 14.1029 7.2961 14.1065 7.31816L14.1065 7.32143V15.0903C14.002 15.4116 13.5832 16.0714 12.5001 16.0714C12.0185 16.0714 11.7009 15.8357 11.4645 15.4645C11.2122 15.0684 11.0941 14.5662 11.0705 14.235C11.0425 13.8415 10.7008 13.5452 10.3073 13.5732C9.91385 13.6012 9.61755 13.9429 9.64554 14.3364C9.68126 14.8386 9.84843 15.5864 10.2595 16.2319C10.6865 16.9024 11.4103 17.5 12.5001 17.5C13.1509 17.5 13.6814 17.3506 14.1065 17.1222V22.2325C13.7578 22.5713 13.0013 23.0413 11.9776 22.8794C11.7571 22.7876 11.4522 22.5931 11.2398 22.3067C11.0311 22.0253 10.8949 21.6391 11.0471 21.0808C11.1287 20.7817 11.008 20.4641 10.7484 20.2947C10.4888 20.1253 10.1495 20.1426 9.90859 20.3377C9.33488 20.8021 8.52285 21.2104 7.8648 21.1836C7.56915 21.1716 7.30769 21.0736 7.07759 20.8377C6.83396 20.588 6.57753 20.1332 6.41572 19.3242C6.30803 18.7858 6.39477 18.4729 6.50718 18.2847C6.62484 18.0876 6.83068 17.9269 7.13491 17.8086C7.77304 17.5604 8.60797 17.5927 8.96807 17.6647C9.3549 17.7421 9.73121 17.4912 9.80857 17.1044C9.88594 16.7175 9.63507 16.3412 9.24824 16.2639C8.71549 16.1573 7.58613 16.1003 6.61713 16.4771C6.20386 16.6379 5.78436 16.8918 5.46564 17.2868C5.18623 17.0873 4.85706 16.7749 4.56414 16.3548C4.10077 15.6903 3.80953 14.87 3.92247 14.023C4.12259 12.522 5.19266 11.8665 5.91327 11.6576C6.01464 11.6282 6.10257 11.61 6.17257 11.6C6.56309 11.5442 6.83445 11.1824 6.77866 10.7918C6.74209 10.5359 6.57406 10.3311 6.35264 10.2361C6.33783 9.78145 6.39317 9.27691 6.56989 8.85404C6.69548 8.55351 6.87325 8.31465 7.11275 8.14842C7.3492 7.98432 7.69431 7.85714 8.21441 7.85714C8.81181 7.85714 9.23881 8.02197 9.53041 8.24548C10.4685 8.96453 10.4563 10.8735 8.6424 11.667C8.28098 11.8252 8.11618 12.2463 8.2743 12.6077C8.43242 12.9691 8.85358 13.1339 9.21499 12.9758ZM15.5366 22.2325V17.1222C15.9617 17.3506 16.4922 17.5 17.143 17.5C18.2329 17.5 18.9566 16.9024 19.3836 16.2319C19.7947 15.5864 19.9619 14.8386 19.9976 14.3364C20.0256 13.9429 19.7293 13.6012 19.3358 13.5732C18.9423 13.5452 18.6006 13.8415 18.5726 14.235C18.5491 14.5662 18.4309 15.0684 18.1786 15.4645C17.9422 15.8357 17.6246 16.0714 17.143 16.0714C16.06 16.0714 15.6412 15.4116 15.5366 15.0903V7.32143L15.5366 7.31816C15.5402 7.2961 15.5527 7.22159 15.5942 7.10651C15.6454 6.96498 15.7276 6.79958 15.8484 6.64476C16.0744 6.35509 16.4545 6.07143 17.143 6.07143C17.843 6.07143 18.2602 6.35041 18.5261 6.67793C18.7153 6.91088 18.8353 7.18015 18.9025 7.41473C17.3421 9.02233 17.9944 11.9111 20.4281 12.9758C20.7896 13.1339 21.2107 12.9691 21.3688 12.6077C21.527 12.2463 21.3622 11.8252 21.0007 11.667C19.1869 10.8735 19.1746 8.96453 20.1127 8.24548C20.4043 8.02197 20.8313 7.85714 21.4287 7.85714C21.9488 7.85714 22.2939 7.98432 22.5304 8.14842C22.7699 8.31465 22.9477 8.55351 23.0733 8.85404C23.25 9.27691 23.3053 9.78145 23.2905 10.2361C23.0691 10.3311 22.9011 10.5359 22.8645 10.7918C22.8087 11.1824 23.08 11.5442 23.4706 11.6C23.5406 11.61 23.6285 11.6282 23.7299 11.6576C24.4505 11.8665 25.5206 12.522 25.7207 14.023C25.8336 14.87 25.5424 15.6903 25.079 16.3548C24.7861 16.7749 24.4569 17.0873 24.1775 17.2868C23.8588 16.8918 23.4393 16.6379 23.026 16.4771C22.057 16.1003 20.9277 16.1573 20.3949 16.2639C20.0081 16.3412 19.7572 16.7175 19.8346 17.1044C19.9119 17.4912 20.2882 17.7421 20.6751 17.6647C21.0352 17.5927 21.8701 17.5604 22.5082 17.8086C22.8125 17.9269 23.0183 18.0876 23.136 18.2847C23.2484 18.4729 23.3351 18.7858 23.2274 19.3242C23.0656 20.1332 22.8092 20.588 22.5656 20.8377C22.3355 21.0736 22.074 21.1716 21.7783 21.1836C21.1203 21.2104 20.3083 20.8021 19.7346 20.3377C19.4936 20.1426 19.1543 20.1253 18.8947 20.2947C18.6351 20.4641 18.5144 20.7817 18.596 21.0808C18.7483 21.6391 18.612 22.0253 18.4034 22.3067C18.1909 22.5931 17.886 22.7876 17.6655 22.8794C16.6419 23.0413 15.8854 22.5713 15.5366 22.2325Z" fill="black"/>
</svg>
